src/Icon/svgs/clip.svg

<svg width="24" height="24" viewBox="0 0 24 24" fill="none" xmlns="http://www.w3.org/2000/svg">
<path fill-rule="evenodd" clip-rule="evenodd" d="M17.2929 4.70712C16.3027 3.71693 14.6973 3.71693 13.7071 4.70712L5.95711 12.4571C4.27657 14.1377 4.27657 16.8624 5.95711 18.5429C7.63765 20.2234 10.3624 20.2234 12.0429 18.5429L20.2929 10.2929L21.7071 11.7071L13.4571 19.9571C10.9955 22.4187 7.00449 22.4187 4.5429 19.9571C2.0813 17.4955 2.0813 13.5045 4.54289 11.0429L12.2929 3.2929C14.0641 1.52167 16.9359 1.52167 18.7071 3.29291C20.4783 5.06414 20.4783 7.93588 18.7071 9.70712L11.4571 16.9571C10.3762 18.038 8.62378 18.038 7.5429 16.9571C6.46201 15.8762 6.46202 14.1238 7.5429 13.0429L14.2929 6.29291L15.7071 7.70712L8.95711 14.4571C8.65728 14.757 8.65728 15.2431 8.95711 15.5429C9.25694 15.8427 9.74306 15.8427 10.0429 15.5429L17.2929 8.29291C18.2831 7.30272 18.2831 5.69731 17.2929 4.70712Z" fill="#1B1C1D"/>
</svg>

<svg xmlns="http://www.w3.org/2000/svg" width="24" height="24" fill="none"  xmlns:v="https://vecta.io/nano"><path fill-rule="evenodd" d="M17.293 4.707c-.99-.99-2.596-.99-3.586 0l-7.75 7.75c-1.681 1.681-1.681 4.405 0 6.086s4.405 1.681 6.086 0l8.25-8.25 1.414 1.414-8.25 8.25c-2.462 2.462-6.453 2.462-8.914 0s-2.462-6.453 0-8.914l7.75-7.75c1.771-1.771 4.643-1.771 6.414 0s1.771 4.643 0 6.414l-7.25 7.25a2.77 2.77 0 0 1-3.914 0 2.77 2.77 0 0 1 0-3.914l6.75-6.75 1.414 1.414-6.75 6.75a.77.77 0 0 0 0 1.086.77.77 0 0 0 1.086 0l7.25-7.25c.99-.99.99-2.596 0-3.586z" fill="#1b1c1d"/></svg>
